assets/Lion/Flat/lion_flat.svg

<svg width="32" height="32" viewBox="0 0 32 32" fill="none" xmlns="http://www.w3.org/2000/svg">
<path d="M28.66 12.33L29.41 12.7C29.68 12.84 30 12.64 30 12.34V8.41C30 7.5 29.64 6.64 29 6C28.36 5.36 27.49 5 26.59 5H26L26.59 3.23C26.79 2.63 26.34 2 25.7 2H19C18.35 2 17.72 2.21 17.2 2.6C16.48 3.14 16.05 3.97 16 4.86H15.99C15.95 3.97 15.51 3.14 14.79 2.61C14.28 2.21 13.65 2 13 2H6.3C5.66 2 5.21 2.63 5.41 3.23L6 5H5.41C4.51 5 3.64 5.36 3 6C2.36 6.64 2 7.51 2 8.41V12.34C2 12.64 2.32 12.84 2.59 12.7L3.34 12.33C3.62 12.19 3.92 12.32 3.99 12.62C4.04 12.83 3.94 13.03 3.75 13.12L2.75 13.62C2.29 13.85 2 14.32 2 14.84V21.29C2 24.08 3.85 26.53 6.53 27.3L15.41 29.84C15.79 29.95 16.2 29.95 16.59 29.84L25.47 27.3C28.15 26.53 30 24.08 30 21.29V14.84C30 14.33 29.71 13.86 29.25 13.63L28.25 13.13C28.07 13.04 27.97 12.83 28.01 12.63C28.08 12.32 28.39 12.19 28.66 12.33Z" fill="#6D4534"/>
<path d="M10.425 4C11.493 4.00174 12.4408 4.56132 12.97 5.41C14.66 7.05 17.34 7.05 19.03 5.41C19.5592 4.56131 20.4971 4.00173 21.575 4C21.8297 4.00041 22.0769 4.03238 22.3128 4.09221C23.0803 4.28871 23.7361 4.78551 24.1403 5.44935C24.4131 5.90154 24.57 6.43204 24.57 7C24.57 7.12981 24.5619 7.25754 24.5461 7.38274C24.4495 8.12396 24.0842 8.78154 23.55 9.25L25.85 12.41C26.6 13.44 27 14.69 27 15.96C27 19.3 24.3 22 20.96 22H11.04C7.7 22 5 19.3 5 15.96C5 14.69 5.4 13.44 6.15 12.41L8.45 9.25C7.83 8.7 7.43 7.9 7.43 7C7.43 6.754 7.45943 6.51504 7.51496 6.28642C7.78483 5.19583 8.65496 4.33514 9.74354 4.0785C9.96236 4.02751 10.1905 4.00038 10.425 4Z" fill="#FFB02E"/>
<path d="M9.31999 8.06C9.21999 8.18 9.12999 8.3 9.03999 8.43C8.65999 8.07 8.42999 7.56 8.42999 7C8.42999 5.9 9.32999 5 10.43 5C11.09 5 11.68 5.32 12.04 5.82C10.99 6.37 10.06 7.13 9.31999 8.05V8.06Z" fill="#D3883E"/>
<path d="M22.7714 8.17705C22.7411 8.13859 22.7105 8.09977 22.68 8.06001C21.94 7.14001 21.01 6.37001 19.96 5.83001C20.33 5.33001 20.92 5.01001 21.58 5.01001C22.68 5.01001 23.58 5.91001 23.58 7.01001C23.58 7.57001 23.34 8.08001 22.97 8.44001C22.9075 8.34977 22.8402 8.26434 22.7714 8.17705Z" fill="#D3883E"/>
<path d="M16 27.0001C12.69 27.0001 10 24.3101 10 21.0001V19.4301H22V21.0001C22 24.3101 19.31 27.0001 16 27.0001Z" fill="#F3C07B"/>
<path d="M19.43 16.86C19.16 16.86 18.9 16.74 18.72 16.54L16.73 14.24C16.34 13.79 15.65 13.79 15.26 14.24L13.27 16.54C13.09 16.75 12.83 16.86 12.56 16.86C11.15 16.86 10 18.01 10 19.43C10 20.85 11.15 22 12.57 22H13.86C14.75 22 15.54 21.54 16 20.85C16.46 21.54 17.25 22 18.14 22H19.43C20.85 22 22 20.85 22 19.43C22 18.01 20.85 16.86 19.43 16.86Z" fill="#FFDEA7"/>
<path d="M12 16C11.45 16 11 15.55 11 15V14C11 13.45 11.45 13 12 13C12.55 13 13 13.45 13 14V15C13 15.55 12.55 16 12 16Z" fill="#212121"/>
<path d="M20 16C19.45 16 19 15.55 19 15V14C19 13.45 19.45 13 20 13C20.55 13 21 13.45 21 14V15C21 15.55 20.55 16 20 16Z" fill="#212121"/>
<path d="M15.44 19.72L13.49 17.77C13.15 17.43 13.39 16.86 13.88 16.86H18.15C18.63 16.86 18.87 17.43 18.53 17.77L16.58 19.72C16.26 20.03 15.75 20.03 15.44 19.72Z" fill="#212121"/>
</svg>

<svg xmlns="http://www.w3.org/2000/svg" width="32" height="32" fill="none"><path fill="#6D4534" d="m28.66 12.33.75.37c.27.14.59-.06.59-.36V8.41A3.415 3.415 0 0 0 26.59 5H26l.59-1.77c.2-.6-.25-1.23-.89-1.23H19c-.65 0-1.28.21-1.8.6A3.03 3.03 0 0 0 16 4.86h-.01c-.04-.89-.48-1.72-1.2-2.25C14.28 2.21 13.65 2 13 2H6.3c-.64 0-1.09.63-.89 1.23L6 5h-.59A3.415 3.415 0 0 0 2 8.41v3.93c0 .3.32.5.59.36l.75-.37c.28-.14.58-.01.65.29.05.21-.05.41-.24.5l-1 .5c-.46.23-.75.7-.75 1.22v6.45c0 2.79 1.85 5.24 4.53 6.01l8.88 2.54c.38.11.79.11 1.18 0l8.88-2.54A6.255 6.255 0 0 0 30 21.29v-6.45c0-.51-.29-.98-.75-1.21l-1-.5a.463.463 0 0 1-.24-.5.44.44 0 0 1 .65-.3Z"/><path fill="#FFB02E" d="M10.425 4a3.003 3.003 0 0 1 2.545 1.41 4.347 4.347 0 0 0 6.06 0 2.99 2.99 0 0 1 3.283-1.318 2.992 2.992 0 0 1 2.233 3.29 2.998 2.998 0 0 1-.996 1.868l2.3 3.16A6.042 6.042 0 0 1 27 15.96C27 19.3 24.3 22 20.96 22h-9.92C7.7 22 5 19.3 5 15.96c0-1.27.4-2.52 1.15-3.55l2.3-3.16a3 3 0 0 1-.935-2.964A3.026 3.026 0 0 1 9.744 4.08c.218-.051.447-.079.681-.079Z"/><path fill="#D3883E" d="M9.32 8.06c-.1.12-.19.24-.28.37-.38-.36-.61-.87-.61-1.43 0-1.1.9-2 2-2 .66 0 1.25.32 1.61.82a8.634 8.634 0 0 0-2.72 2.23v.01ZM22.771 8.177l-.091-.117a8.5 8.5 0 0 0-2.72-2.23c.37-.5.96-.82 1.62-.82 1.1 0 2 .9 2 2 0 .56-.24 1.07-.61 1.43a5.32 5.32 0 0 0-.199-.263Z"/><path fill="#F3C07B" d="M16 27c-3.31 0-6-2.69-6-6v-1.57h12V21c0 3.31-2.69 6-6 6Z"/><path fill="#FFDEA7" d="M19.43 16.86c-.27 0-.53-.12-.71-.32l-1.99-2.3a.97.97 0 0 0-1.47 0l-1.99 2.3c-.18.21-.44.32-.71.32-1.41 0-2.56 1.15-2.56 2.57A2.57 2.57 0 0 0 12.57 22h1.29c.89 0 1.68-.46 2.14-1.15.46.69 1.25 1.15 2.14 1.15h1.29a2.57 2.57 0 1 0 0-5.14Z"/><path fill="#212121" d="M12 16c-.55 0-1-.45-1-1v-1c0-.55.45-1 1-1s1 .45 1 1v1c0 .55-.45 1-1 1ZM20 16c-.55 0-1-.45-1-1v-1c0-.55.45-1 1-1s1 .45 1 1v1c0 .55-.45 1-1 1ZM15.44 19.72l-1.95-1.95c-.34-.34-.1-.91.39-.91h4.27c.48 0 .72.57.38.91l-1.95 1.95c-.32.31-.83.31-1.14 0Z"/></svg>
